assets/icons/snapcraft/bag.svg

<?xml version="1.0" encoding="UTF-8" standalone="no"?>
<svg
   viewBox="0 0 24 24"
   width="24"
   height="24"
   fill="#808080"
   version="1.1"
   id="svg10"
   sodipodi:docname="bag.svg"
   inkscape:version="1.2 (1:1.2.1+202207142221+cd75a1ee6d)"
   xmlns:inkscape="http://www.inkscape.org/namespaces/inkscape"
   xmlns:sodipodi="http://sodipodi.sourceforge.net/DTD/sodipodi-0.dtd"
   xmlns="http://www.w3.org/2000/svg"
   xmlns:svg="http://www.w3.org/2000/svg">
  <defs
     id="defs14" />
  <sodipodi:namedview
     id="namedview12"
     pagecolor="#ffffff"
     bordercolor="#666666"
     borderopacity="1.0"
     inkscape:pageshadow="2"
     inkscape:pageopacity="0.0"
     inkscape:pagecheckerboard="0"
     showgrid="true"
     inkscape:zoom="24.09375"
     inkscape:cx="6.8897536"
     inkscape:cy="12.596628"
     inkscape:window-width="1920"
     inkscape:window-height="1016"
     inkscape:window-x="0"
     inkscape:window-y="0"
     inkscape:window-maximized="1"
     inkscape:current-layer="svg10"
     inkscape:showpageshadow="2"
     inkscape:deskcolor="#d1d1d1">
    <inkscape:grid
       type="xygrid"
       id="grid16" />
    <inkscape:grid
       type="xygrid"
       id="grid656"
       dotted="true"
       spacingx="0.5"
       spacingy="0.5"
       empspacing="10" />
  </sodipodi:namedview>
  <path
     id="path712"
     style="color:#000000;fill:#808080;fill-rule:evenodd;stroke-linecap:round;stroke-linejoin:round;-inkscape-stroke:none"
     d="M 12 2 C 9.7483704 2 7.8978112 3.7481389 7.5566406 6 L 5 6 C 3.346652 6 2 7.346652 2 9 L 2 19 C 2 20.653348 3.346652 22 5 22 L 19 22 C 20.653348 22 22 20.653348 22 19 L 22 9 C 22 7.346652 20.653348 6 19 6 L 16.443359 6 C 16.102189 3.7481389 14.25163 2 12 2 z M 12 3 C 13.685804 3 15.105867 4.2744602 15.429688 6 L 8.5703125 6 C 8.8941322 4.2744602 10.314196 3 12 3 z M 5 7 L 19 7 C 20.116646 7 21 7.8833536 21 9 L 21 19 C 21 20.116646 20.116646 21 19 21 L 5 21 C 3.8833536 21 3 20.116646 3 19 L 3 9 C 3 7.8833536 3.8833536 7 5 7 z " />
  <path
     d="m 6.000001,8 6,2.25 v 3.75 z"
     id="path2"
     style="stroke-width:1.25" />
  <path
     d="m 12.225001,15.275 -4.725,4.725 3.15,-6.3 z"
     id="path4"
     style="stroke-width:1.25" />
  <path
     d="m 12.750001,10.9595 v 3.7905 l 2.75625,-2.75625 z"
     id="path6"
     style="stroke-width:1.25" />
  <path
     d="m 12.750001,10.25 h 4.5 l 0.75,1.96875 z"
     id="path8"
     style="stroke-width:1.25" />
</svg>

<svg width="24" height="24" fill="gray" xmlns="http://www.w3.org/2000/svg"><path style="color:#000;fill:gray;stroke-linecap:round;stroke-linejoin:round;-inkscape-stroke:none" d="M12 2C9.748 2 7.898 3.748 7.557 6H5C3.347 6 2 7.347 2 9v10c0 1.653 1.347 3 3 3h14c1.653 0 3-1.347 3-3V9c0-1.653-1.347-3-3-3h-2.557c-.34-2.252-2.191-4-4.443-4zm0 1c1.686 0 3.106 1.274 3.43 3H8.57c.324-1.726 1.744-3 3.43-3zM5 7h14c1.117 0 2 .883 2 2v10c0 1.117-.883 2-2 2H5c-1.117 0-2-.883-2-2V9c0-1.117.883-2 2-2z"/><path d="m6 8 6 2.25V14zm6.225 7.275L7.5 20l3.15-6.3zm.525-4.315v3.79l2.756-2.756zm0-.71h4.5l.75 1.969z" style="stroke-width:1.25"/></svg>
